X: 1076
T:Marino Waltz (A35)
N: page A35
N: heptatonic
N: matches 449
C: John Shehan
M:3/4
L:1/4
R:Waltz
Z:Gerry Strong
K:G
"G"gd>B |"Bm"F2 B|"C"E2 c|"D" D3|"C"CDE|"D7" FDA|"G"GDB|"D7" A3|
"G"gd>B|"Bm" F2 f|"C"ed>c|"Am" E2 e|"D7"dc>A |FDB|1\
"G"G3-|G/2d/2 ^c/2d/2 e/2f/2:|2G3-|G3|:
"G"DEF | GA^A|"Bm"B3 |F2=F|"C"E3 | c2 E|"Am"G3|"D7" F/E/F2|
"C"CDE |"D7" FD>A|"G"GD>d |"C"e2 d|"D7"cAF | D2 B|"G"G3-|G3:|
